src/assets/logo/microsoft.svg

<?xml version="1.0" encoding="UTF-8" standalone="no"?><!DOCTYPE svg PUBLIC "-//W3C//DTD SVG 1.1//EN" "http://www.w3.org/Graphics/SVG/1.1/DTD/svg11.dtd"><svg width="100%" height="100%" viewBox="0 0 540 200" version="1.1" xmlns="http://www.w3.org/2000/svg" xmlns:xlink="http://www.w3.org/1999/xlink" xml:space="preserve" xmlns:serif="http://www.serif.com/" style="fill-rule:evenodd;clip-rule:evenodd;stroke-linejoin:round;stroke-miterlimit:1.41421;"><g id="microsoft"><g><path d="M186.88,110.181l-3.07,8.691l-0.256,0c-0.511,-1.959 -1.449,-4.942 -2.984,-8.52l-16.455,-41.325l-16.115,0l0,65.864l10.658,0l0,-40.643c0,-2.556 0,-5.453 -0.085,-9.032c-0.086,-1.789 -0.256,-3.152 -0.342,-4.175l0.256,0c0.512,2.556 1.109,4.431 1.535,5.624l19.781,48.056l7.503,0l19.61,-48.482c0.427,-1.108 0.853,-3.323 1.279,-5.198l0.256,0c-0.256,4.857 -0.426,9.202 -0.512,11.844l0,41.75l11.34,0l0,-65.778l-15.517,0l-16.882,41.324Zm43.142,-22.749l11.085,0l0,47.203l-11.085,0l0,-47.203Zm5.628,-19.939c-1.876,0 -3.411,0.682 -4.69,1.875c-1.279,1.193 -1.961,2.727 -1.961,4.601c0,1.789 0.682,3.323 1.961,4.516c1.279,1.193 2.814,1.789 4.69,1.789c1.876,0 3.496,-0.681 4.689,-1.789c1.279,-1.193 1.961,-2.727 1.961,-4.516c0,-1.789 -0.682,-3.323 -1.961,-4.601c-1.108,-1.193 -2.728,-1.875 -4.689,-1.875m44.763,19.513c-2.047,-0.427 -4.178,-0.682 -6.225,-0.682c-5.03,0 -9.634,1.108 -13.471,3.323c-3.837,2.215 -6.906,5.283 -8.867,9.117c-2.047,3.919 -3.07,8.435 -3.07,13.633c0,4.516 1.023,8.52 2.984,12.184c1.961,3.579 4.69,6.476 8.356,8.436c3.496,1.959 7.588,2.982 12.193,2.982c5.286,0 9.805,-1.108 13.386,-3.153l0.085,-0.085l0,-10.225l-0.426,0.341c-1.62,1.193 -3.496,2.215 -5.372,2.812c-1.961,0.681 -3.751,1.022 -5.286,1.022c-4.434,0 -7.929,-1.278 -10.402,-4.09c-2.558,-2.726 -3.837,-6.475 -3.837,-11.161c0,-4.857 1.279,-8.691 3.922,-11.503c2.643,-2.812 6.139,-4.261 10.402,-4.261c3.581,0 7.248,1.193 10.573,3.579l0.426,0.341l0,-10.821l-0.085,-0.085c-1.45,-0.597 -3.07,-1.278 -5.286,-1.704m36.577,-0.341c-2.728,0 -5.286,0.852 -7.503,2.641c-1.876,1.534 -3.155,3.749 -4.263,6.39l-0.085,0l0,-8.264l-11.084,0l0,47.203l11.084,0l0,-24.113c0,-4.09 0.852,-7.498 2.728,-9.969c1.876,-2.556 4.263,-3.834 7.162,-3.834c1.023,0 2.046,0.256 3.325,0.426c1.194,0.341 2.047,0.682 2.643,1.108l0.427,0.34l0,-11.076l-0.256,-0.085c-0.767,-0.512 -2.302,-0.767 -4.178,-0.767m78.356,20.364c-3.495,-1.449 -5.712,-2.556 -6.735,-3.494c-0.853,-0.852 -1.279,-2.045 -1.279,-3.578c0,-1.278 0.511,-2.556 1.79,-3.408c1.279,-0.853 2.729,-1.279 4.86,-1.279c1.876,0 3.837,0.341 5.713,0.853c1.875,0.511 3.581,1.278 4.945,2.3l0.426,0.341l0,-10.395l-0.256,-0.085c-1.278,-0.512 -2.984,-1.023 -5.03,-1.449c-2.046,-0.341 -3.922,-0.511 -5.457,-0.511c-5.286,0 -9.634,1.278 -13.045,4.09c-3.41,2.641 -5.03,6.22 -5.03,10.395c0,2.215 0.341,4.175 1.108,5.794c0.767,1.619 1.876,3.152 3.41,4.43c1.535,1.193 3.752,2.557 6.821,3.835c2.558,1.107 4.519,1.959 5.713,2.641c1.194,0.682 1.961,1.449 2.558,2.045c0.426,0.682 0.682,1.534 0.682,2.641c0,3.153 -2.387,4.687 -7.247,4.687c-1.876,0 -3.837,-0.341 -6.139,-1.108c-2.302,-0.767 -4.434,-1.874 -6.224,-3.153l-0.427,-0.34l0,10.821l0.256,0.085c1.62,0.767 3.581,1.278 5.968,1.874c2.388,0.426 4.519,0.767 6.395,0.767c5.713,0 10.402,-1.278 13.727,-4.09c3.411,-2.726 5.201,-6.22 5.201,-10.735c0,-3.153 -0.852,-5.965 -2.728,-8.095c-2.473,-2.045 -5.542,-4.175 -9.976,-5.879m102.315,13.803c0,9.969 4.69,14.996 14.069,14.996c1.534,0 3.154,-0.255 4.689,-0.511c1.62,-0.341 2.814,-0.767 3.496,-1.108l0.085,-0.085l0,-9.117l-0.426,0.341c-0.682,0.426 -1.279,0.767 -2.302,1.022c-0.853,0.256 -1.62,0.341 -2.217,0.341c-2.217,0 -3.752,-0.511 -4.86,-1.789c-1.023,-1.193 -1.535,-3.153 -1.535,-6.05l0,-25.135l0.171,0l0,-20.279l-0.341,0.085l-10.573,3.153l-0.256,0.085l0,44.051Zm-16.711,-39.365c0,-2.726 0.682,-4.857 1.876,-6.22c1.193,-1.363 2.984,-2.045 5.201,-2.045c1.534,0 3.154,0.341 4.945,1.108l0.426,0.255l0,-9.628l-0.256,-0.085c-1.534,-0.511 -3.581,-0.852 -6.224,-0.852c-3.325,0 -6.224,0.767 -8.867,2.045c-2.643,1.448 -4.604,3.408 -6.054,6.05c-1.449,2.556 -2.217,5.453 -2.217,8.776l0,53.764l11.17,0l0,-53.168Zm-6.906,15.082l45.956,0l0,-9.117l-57.978,0l0,9.031l12.022,0l0,0.086Z" style="fill:#a0a0a0;fill-rule:nonzero;"/><path id="o" d="M352.174,86.179c-7.534,0 -13.578,2.235 -17.801,6.623c-4.305,4.388 -6.375,10.433 -6.375,18.05c0,7.12 2.153,12.916 6.292,17.138c4.14,4.14 9.77,6.293 16.808,6.293c7.369,0 13.247,-2.236 17.47,-6.707c4.305,-4.471 6.375,-10.432 6.375,-17.801c0,-7.286 -1.987,-13.081 -6.044,-17.304c-3.892,-4.222 -9.604,-6.292 -16.725,-6.292m8.611,35.27c-1.987,2.567 -5.133,3.809 -9.025,3.809c-3.891,0 -7.037,-1.242 -9.273,-3.974c-2.235,-2.567 -3.312,-6.293 -3.312,-11.012c0,-4.885 1.159,-8.611 3.312,-11.26c2.236,-2.649 5.299,-3.974 9.19,-3.974c3.809,0 6.79,1.242 8.942,3.808c2.153,2.567 3.312,6.293 3.312,11.178c-0.165,4.967 -1.076,8.859 -3.146,11.425" style="fill:#a0a0a0;fill-rule:nonzero;"/><path id="o1" serif:id="o" d="M439.689,86.179c-7.535,0 -13.579,2.235 -17.801,6.623c-4.306,4.388 -6.375,10.433 -6.375,18.05c0,7.12 2.152,12.916 6.292,17.138c4.14,4.14 9.77,6.293 16.807,6.293c7.369,0 13.248,-2.236 17.47,-6.707c4.305,-4.471 6.375,-10.432 6.375,-17.801c0,-7.286 -1.987,-13.081 -6.044,-17.304c-3.891,-4.222 -9.604,-6.292 -16.724,-6.292m8.61,35.27c-1.987,2.567 -5.133,3.809 -9.024,3.809c-3.892,0 -7.038,-1.242 -9.273,-3.974c-2.236,-2.567 -3.312,-6.293 -3.312,-11.012c0,-4.885 1.159,-8.611 3.312,-11.26c2.235,-2.649 5.299,-3.974 9.19,-3.974c3.808,0 6.789,1.242 8.942,3.808c2.152,2.567 3.312,6.293 3.312,11.178c-0.166,4.967 -1.077,8.859 -3.147,11.425" style="fill:#a0a0a0;fill-rule:nonzero;"/><rect x="20" y="46" width="50" height="50" style="fill:#a0a0a0;fill-rule:nonzero;"/><rect x="78" y="46" width="50" height="50" style="fill:#a0a0a0;fill-rule:nonzero;"/><rect x="20" y="104" width="50" height="50" style="fill:#a0a0a0;fill-rule:nonzero;"/><rect x="78" y="104" width="50" height="50" style="fill:#a0a0a0;fill-rule:nonzero;"/></g></g></svg>

<?xml version="1.0" encoding="UTF-8" standalone="no"?>
<!DOCTYPE svg PUBLIC "-//W3C//DTD SVG 1.1//EN" "http://www.w3.org/Graphics/SVG/1.1/DTD/svg11.dtd">
<svg width="100%" height="100%" viewBox="0 0 540 200" version="1.1" xmlns="http://www.w3.org/2000/svg" xmlns:xlink="http://www.w3.org/1999/xlink" xml:space="preserve" xmlns:serif="http://www.serif.com/" style="fill-rule:evenodd;clip-rule:evenodd;stroke-linejoin:round;stroke-miterlimit:2;">
    <g id="microsoft">
        <g>
            <path d="M186.88,110.181L183.81,118.872L183.554,118.872C183.043,116.913 182.105,113.93 180.57,110.352L164.115,69.027L148,69.027L148,134.891L158.658,134.891L158.658,94.248C158.658,91.692 158.658,88.795 158.573,85.216C158.487,83.427 158.317,82.064 158.231,81.041L158.487,81.041C158.999,83.597 159.596,85.472 160.022,86.665L179.803,134.721L187.306,134.721L206.916,86.239C207.343,85.131 207.769,82.916 208.195,81.041L208.451,81.041C208.195,85.898 208.025,90.243 207.939,92.885L207.939,134.635L219.279,134.635L219.279,68.857L203.762,68.857L186.88,110.181ZM230.022,87.432L241.107,87.432L241.107,134.635L230.022,134.635L230.022,87.432ZM235.65,67.493C233.774,67.493 232.239,68.175 230.96,69.368C229.681,70.561 228.999,72.095 228.999,73.969C228.999,75.758 229.681,77.292 230.96,78.485C232.239,79.678 233.774,80.274 235.65,80.274C237.526,80.274 239.146,79.593 240.339,78.485C241.618,77.292 242.3,75.758 242.3,73.969C242.3,72.18 241.618,70.646 240.339,69.368C239.231,68.175 237.611,67.493 235.65,67.493M280.413,87.006C278.366,86.579 276.235,86.324 274.188,86.324C269.158,86.324 264.554,87.432 260.717,89.647C256.88,91.862 253.811,94.93 251.85,98.764C249.803,102.683 248.78,107.199 248.78,112.397C248.78,116.913 249.803,120.917 251.764,124.581C253.725,128.16 256.454,131.057 260.12,133.017C263.616,134.976 267.708,135.999 272.313,135.999C277.599,135.999 282.118,134.891 285.699,132.846L285.784,132.761L285.784,122.536L285.358,122.877C283.738,124.07 281.862,125.092 279.986,125.689C278.025,126.37 276.235,126.711 274.7,126.711C270.266,126.711 266.771,125.433 264.298,122.621C261.74,119.895 260.461,116.146 260.461,111.46C260.461,106.603 261.74,102.769 264.383,99.957C267.026,97.145 270.522,95.696 274.785,95.696C278.366,95.696 282.033,96.889 285.358,99.275L285.784,99.616L285.784,88.795L285.699,88.71C284.249,88.113 282.629,87.432 280.413,87.006M316.99,86.665C314.262,86.665 311.704,87.517 309.487,89.306C307.611,90.84 306.332,93.055 305.224,95.696L305.139,95.696L305.139,87.432L294.055,87.432L294.055,134.635L305.139,134.635L305.139,110.522C305.139,106.432 305.991,103.024 307.867,100.553C309.743,97.997 312.13,96.719 315.029,96.719C316.052,96.719 317.075,96.975 318.354,97.145C319.548,97.486 320.401,97.827 320.997,98.253L321.424,98.593L321.424,87.517L321.168,87.432C320.401,86.92 318.866,86.665 316.99,86.665M395.346,107.029C391.851,105.58 389.634,104.473 388.611,103.535C387.758,102.683 387.332,101.49 387.332,99.957C387.332,98.679 387.843,97.401 389.122,96.549C390.401,95.696 391.851,95.27 393.982,95.27C395.858,95.27 397.819,95.611 399.695,96.123C401.57,96.634 403.276,97.401 404.64,98.423L405.066,98.764L405.066,88.369L404.81,88.284C403.532,87.772 401.826,87.261 399.78,86.835C397.734,86.494 395.858,86.324 394.323,86.324C389.037,86.324 384.689,87.602 381.278,90.414C377.868,93.055 376.248,96.634 376.248,100.809C376.248,103.024 376.589,104.984 377.356,106.603C378.123,108.222 379.232,109.755 380.766,111.033C382.301,112.226 384.518,113.59 387.587,114.868C390.145,115.975 392.106,116.827 393.3,117.509C394.494,118.191 395.261,118.958 395.858,119.554C396.284,120.236 396.54,121.088 396.54,122.195C396.54,125.348 394.153,126.882 389.293,126.882C387.417,126.882 385.456,126.541 383.154,125.774C380.852,125.007 378.72,123.9 376.93,122.621L376.503,122.281L376.503,133.102L376.759,133.187C378.379,133.954 380.34,134.465 382.727,135.061C385.115,135.487 387.246,135.828 389.122,135.828C394.835,135.828 399.524,134.55 402.849,131.738C406.26,129.012 408.05,125.518 408.05,121.003C408.05,117.85 407.198,115.038 405.322,112.908C402.849,110.863 399.78,108.733 395.346,107.029M497.661,120.832C497.661,130.801 502.351,135.828 511.73,135.828C513.264,135.828 514.884,135.573 516.419,135.317C518.039,134.976 519.233,134.55 519.915,134.209L520,134.124L520,125.007L519.574,125.348C518.892,125.774 518.295,126.115 517.272,126.37C516.419,126.626 515.652,126.711 515.055,126.711C512.838,126.711 511.303,126.2 510.195,124.922C509.172,123.729 508.66,121.769 508.66,118.872L508.66,93.737L508.831,93.737L508.831,73.458L508.49,73.543L497.917,76.696L497.661,76.781L497.661,120.832ZM480.95,81.467C480.95,78.741 481.632,76.61 482.826,75.247C484.019,73.884 485.81,73.202 488.027,73.202C489.561,73.202 491.181,73.543 492.972,74.31L493.398,74.565L493.398,64.937L493.142,64.852C491.608,64.341 489.561,64 486.918,64C483.593,64 480.694,64.767 478.051,66.045C475.408,67.493 473.447,69.453 471.997,72.095C470.548,74.651 469.78,77.548 469.78,80.871L469.78,134.635L480.95,134.635L480.95,81.467ZM474.044,96.549L520,96.549L520,87.432L462.022,87.432L462.022,96.463L474.044,96.463L474.044,96.549Z" style="fill:rgb(208,208,208);fill-rule:nonzero;"/>
            <path id="o" d="M352.174,86.179C344.64,86.179 338.596,88.414 334.373,92.802C330.068,97.19 327.998,103.235 327.998,110.852C327.998,117.972 330.151,123.768 334.29,127.99C338.43,132.13 344.06,134.283 351.098,134.283C358.467,134.283 364.345,132.047 368.568,127.576C372.873,123.105 374.943,117.144 374.943,109.775C374.943,102.489 372.956,96.694 368.899,92.471C365.007,88.249 359.295,86.179 352.174,86.179M360.785,121.449C358.798,124.016 355.652,125.258 351.76,125.258C347.869,125.258 344.723,124.016 342.487,121.284C340.252,118.717 339.175,114.991 339.175,110.272C339.175,105.387 340.334,101.661 342.487,99.012C344.723,96.363 347.786,95.038 351.677,95.038C355.486,95.038 358.467,96.28 360.619,98.846C362.772,101.413 363.931,105.139 363.931,110.024C363.766,114.991 362.855,118.883 360.785,121.449" style="fill:rgb(208,208,208);fill-rule:nonzero;"/>
            <path id="o1" serif:id="o" d="M439.689,86.179C432.154,86.179 426.11,88.414 421.888,92.802C417.582,97.19 415.513,103.235 415.513,110.852C415.513,117.972 417.665,123.768 421.805,127.99C425.945,132.13 431.575,134.283 438.612,134.283C445.981,134.283 451.86,132.047 456.082,127.576C460.387,123.105 462.457,117.144 462.457,109.775C462.457,102.489 460.47,96.694 456.413,92.471C452.522,88.249 446.809,86.179 439.689,86.179M448.299,121.449C446.312,124.016 443.166,125.258 439.275,125.258C435.383,125.258 432.237,124.016 430.002,121.284C427.766,118.717 426.69,114.991 426.69,110.272C426.69,105.387 427.849,101.661 430.002,99.012C432.237,96.363 435.301,95.038 439.192,95.038C443,95.038 445.981,96.28 448.134,98.846C450.286,101.413 451.446,105.139 451.446,110.024C451.28,114.991 450.369,118.883 448.299,121.449" style="fill:rgb(208,208,208);fill-rule:nonzero;"/>
            <rect x="20" y="46" width="50" height="50" style="fill:rgb(208,208,208);"/>
            <rect x="78" y="46" width="50" height="50" style="fill:rgb(208,208,208);"/>
            <rect x="20" y="104" width="50" height="50" style="fill:rgb(208,208,208);"/>
            <rect x="78" y="104" width="50" height="50" style="fill:rgb(208,208,208);"/>
        </g>
    </g>
</svg>
